X: 1
P: the Barrowburn Reel
C: by Addie Harper
C: from B. McOwen/SRSNH, arr. T. Traub 5-29-2005
L: 1/8
K: D
|:"D"D2DE FAAd|"G"B2BA BddB|"D"A2AB "Bm"d2de |"Em"fedB "A7"AFEF|"D"D2DE FAAd|
"G"B2BA Bdde|"D"f2 af "A7"egfe|"A"dBAB "D"d2 :||: cd|"A7"e2ef ecBA|"D"f2fg fdBA|
"Em"g2ga gecA|"D"a2ag "F#"f2 ef|"G"g2ga "A7"gecA|"D"a2ag f2 ef|"G"g2ag "D"f2ed|"G"dB"A7"AB "D"d2 :|
